X:1
T:Show Me the Rock
T:Show Me the Rock
T:John Robson Sweney
T:William R. Landon, 1886
T:Public Domain Courtesy of the Cyber Hymnal™
C:John Robson Sweney
Z:Public Domain
Z:Courtesy of the Cyber Hymnal™
%%score ( 1 2 ) ( 3 4 )
L:1/8
Q:1/4=105
M:4/4
K:Ab
V:1 treble 
V:2 treble 
V:3 bass 
V:4 bass 
V:1
 [CE]3 [DF] [CE]2 [A,C]2 | [CE]2 [CA]2 [CE]4 | [DF]3 [FA] [EG]2 [DF]2 | [DF]3 [CE] [CE]4 | %4
w: 1.~Sav- ior, break this|heart of mine,|Melt it now with|love di- vine;|
w: 2.~Bend Thine ear and|hear my cry,|Leave me not in|sin to die;|
w: 3.~Reach Thy hand and|lift my soul|From the waves that|o’er me roll;|
w: 4.~Save me now and|ev- er- more;|Lord, I would Thy|name a- dore;|
 E3 [EB] (AG) (FG) | [EA]2 [EB]2 [Ec]4 | [DF]3 [FB] [EA]2 [CE]2 | [Ec]2 [DB]2 [CA]4 || %8
w: On- ly Thou * my *|help must be,|On- ly Thou canst|set me free.|
w: This my hope, * my *|on- ly plea―|Thou didst come to|res- cue me.|
w: Where for ref- * uge *|can I flee?|Lord, I per- ish;|save Thou me.|
w: Hide my trem- * bling *|soul in Thee;|Lord, I per- ish,|save Thou me.|
"^Refrain" c2 c>c c2 C2 | F2 G2 A4 | [GB]2 [GB]>[GB] [GB]2 [Ed]2 | [Ec]2 [Ec]>[Ec] [Ec]4 | %12
w: ||||
w: ||||
w: ||||
w: ||||
 [Ee]2 [Ee]>[Ed] [Ec]2 (cB) | [EA]2 [EG]2 [DF]4 | [CE]2 C>E A2 [Ec]2 | [DB]4 [CA]4 |] %16
w: ||||
w: ||||
w: ||||
w: ||||
V:2
 x8 | x8 | x8 | x8 | E3 E2 E2 x | x8 | x8 | x8 || c2 c>c c2 C2 | F2 G2 A4 | x8 | x8 | x6 E2 | x8 | %14
 x2 C>E A2 x2 | x8 |] %16
V:3
 [A,,A,]3 [A,,A,] [A,,A,]2 [A,,E,]2 | [A,,A,]2 [A,,E,]2 [A,,A,]4 | [D,A,]3 [D,A,] [D,A,]2 [D,A,]2 | %3
w: ~ ~ ~ ~|~ ~ ~|~ ~ ~ ~|
 [A,,A,]3 [A,,A,] [A,,A,]4 | [E,G,]3 [E,D] (CB,) [D,B,]2 | [C,A,]2 [B,,G,]2 [A,,A,]4 | %6
w: ~ ~ ~|~ ~ ~ * ~|~ ~ ~|
 [D,A,]3 [D,D] [E,C]2 [E,A,]2 | [E,A,]2 [E,G,]2 A,4 || C2 C>C C2 C,2 | F,2 G,2 A,4 | %10
w: ~ ~ ~ ~|~ ~ ~|Out of the deep and|mi- ry clay,|
 [E,E]2 [E,E]>[E,E] [E,E]2 [G,B,]2 | A,2 A,>A, A,4 | [A,C]2 [A,C]>[A,B,] A,2 ([A,,A,][B,,G,]) | %13
w: Take me a- way, oh,|take me a- way;|Show me the Rock, O *|
 [C,A,]2 [C,A,]2 [D,A,]4 | [A,,A,]2 C,>E, A,2 [A,,A,]2 | [E,G,]4 [A,,A,]4 |] %16
w: Lord, I pray,|Rock of e- ter- nal|ag- es.|
V:4
 x8 | x8 | x8 | x8 | x4 E,2 x2 | x8 | x8 | x4 A,4 || C2 C>C C2 C,2 | F,2 G,2 A,4 | x8 | %11
 A,2 A,>A, A,4 | x4 A,2 x2 | x8 | x2 C,>E, A,2 x2 | x8 |] %16

